material/.icons/material/printer-wireless.svg

<svg xmlns="http://www.w3.org/2000/svg" viewBox="0 0 24 24"><path d="M4.93 3.92l1.41 1.41c3.12-3.13 8.19-3.13 11.32 0l1.41-1.41C15.17 0 8.84 0 4.93 3.92m2.83 2.83l1.41 1.41a4.008 4.008 0 015.66 0l1.41-1.41a6 6 0 00-8.48 0M19 14a1 1 0 01-1-1 1 1 0 011-1 1 1 0 011 1 1 1 0 01-1 1m-3 6H8v-5h8v5m3-10H5a3 3 0 00-3 3v5h4v4h12v-4h4v-5a3 3 0 00-3-3z"/></svg>

<?xml version="1.0" encoding="UTF-8"?><!DOCTYPE svg PUBLIC "-//W3C//DTD SVG 1.1//EN" "http://www.w3.org/Graphics/SVG/1.1/DTD/svg11.dtd"><svg xmlns="http://www.w3.org/2000/svg" xmlns:xlink="http://www.w3.org/1999/xlink" version="1.1" id="mdi-printer-wireless" width="24" height="24" viewBox="0 0 24 24"><path d="M4.93,3.92L6.34,5.33C9.46,2.2 14.53,2.2 17.66,5.33L19.07,3.92C15.17,0 8.84,0 4.93,3.92M7.76,6.75L9.17,8.16C10.73,6.6 13.26,6.6 14.83,8.16L16.24,6.75C13.9,4.41 10.1,4.41 7.76,6.75M19,14A1,1 0 0,1 18,13A1,1 0 0,1 19,12A1,1 0 0,1 20,13A1,1 0 0,1 19,14M16,20H8V15H16V20M19,10H5A3,3 0 0,0 2,13V18H6V22H18V18H22V13A3,3 0 0,0 19,10Z" /></svg>
